img/file.svg

<svg xmlns="http://www.w3.org/2000/svg" width="25" height="24" fill="none"><path fill="#000" d="M3.5 19h18v2h-18zm10-13.172V17h-2V5.828L5.429 11.9l-1.414-1.414L12.5 2l8.485 8.485-1.414 1.415z"/></svg>

<svg width="25" height="24" viewBox="0 0 25 24" fill="none" xmlns="http://www.w3.org/2000/svg">
<path d="M3.5 19H21.5V21H3.5V19ZM13.5 5.828V17H11.5V5.828L5.429 11.9L4.015 10.486L12.5 2L20.985 10.485L19.571 11.9L13.5 5.828Z" fill="black"/>
</svg>
